X:1
T:Dr. Marshall's (Braemar)
T:Dr. Marshall's (Braemar)
T:Alexander Walker
C:Alexander Walker
L:1/8
M:4/4
K:D
V:1 treble 
V:1
 AF | D/D/D FD ADFD | dcdc BAGF | E/E/E GE BEGE | Bgfe dcBA | D/D/D FD ADFD | dcdA GFED | %7
 EGFA GB Ag | f2 d2 d2 :| g | fdAd FdAd | fdAF G2 FE | GBGE FAFD | E2 A,2 A,3 g | fafd egec | %15
 dedB ABAF | GBAG FDEC | D2 D2 d3 g | fdAd FdAd | fdAF G2 FE | GBGE FAFD | E2 A,2 A,3 g | %22
 fafd egec | dedB ABAF | GBAg fdec | d2 d2 d2 || %26

